assets/tw.svg

<svg width="28" height="23" viewBox="0 0 28 23" fill="none" xmlns="http://www.w3.org/2000/svg">
<path d="M8.94272 22.9978C19.3544 22.9978 25.0508 14.3697 25.0508 6.8897C25.0508 6.64715 25.0454 6.3992 25.0346 6.15664C26.1427 5.35527 27.099 4.36266 27.8585 3.22545C26.8265 3.68461 25.7308 3.98449 24.6088 4.11483C25.7902 3.40669 26.6747 2.29423 27.0985 0.983672C25.9871 1.64233 24.7717 2.10695 23.5043 2.35763C22.6504 1.4503 21.5214 0.849534 20.2918 0.648225C19.0622 0.446916 17.8005 0.656274 16.7018 1.24393C15.6031 1.83159 14.7286 2.76481 14.2135 3.89931C13.6984 5.03382 13.5714 6.30642 13.8521 7.52036C11.6017 7.40743 9.40013 6.82283 7.39015 5.80447C5.38016 4.7861 3.60662 3.3567 2.1845 1.60893C1.4617 2.85512 1.24053 4.32976 1.56592 5.73316C1.89132 7.13656 2.73886 8.36341 3.93631 9.16437C3.03734 9.13582 2.15806 8.89379 1.37112 8.45825V8.52832C1.37032 9.8361 1.82243 11.1038 2.65061 12.1159C3.47878 13.1281 4.63191 13.8222 5.91397 14.0802C5.08122 14.3081 4.2072 14.3413 3.35956 14.1772C3.72134 15.3019 4.42522 16.2856 5.37297 16.991C6.32072 17.6964 7.46505 18.0884 8.64626 18.1121C6.64092 19.6873 4.16373 20.5417 1.61368 20.5377C1.16145 20.537 0.709665 20.5093 0.260742 20.4547C2.85132 22.1166 5.86485 22.9994 8.94272 22.9978Z" fill="#E6EDFB"/>
</svg>

<svg width="28" height="23" fill="none" xmlns="http://www.w3.org/2000/svg"><path d="M8.943 22.998c10.411 0 16.108-8.628 16.108-16.108 0-.243-.006-.49-.016-.733a11.499 11.499 0 0 0 2.823-2.932c-1.032.46-2.127.76-3.25.89a5.693 5.693 0 0 0 2.49-3.131 11.381 11.381 0 0 1-3.594 1.374 5.67 5.67 0 0 0-9.652 5.162A16.081 16.081 0 0 1 2.184 1.61a5.668 5.668 0 0 0 1.752 7.555 5.669 5.669 0 0 1-2.565-.706v.07a5.66 5.66 0 0 0 4.543 5.552 5.626 5.626 0 0 1-2.554.097 5.673 5.673 0 0 0 5.286 3.935 11.356 11.356 0 0 1-8.385 2.343 16.064 16.064 0 0 0 8.682 2.543z" fill="#E6EDFB"/></svg>
